X:1
T:Caledonian Canal
M:C
L:1/8
R:Strathspey
N:"Slowly"
B:Gow- Fourth Collection of Niel Gow's Reels (2nd ed., originally 1800)
Z:AK/Fiddler's Companion
K:Dmin
F|D(dd>)e fdeA|"tr"c>d dC {CD}c3e|A(dd>)e fd (f/e/).d/.c/|AGFE {E}D3D|D(dd>)e fdeA|
"tr"c>d dC {CE}c3e|A(dd>)e "tr"f>efg|a>gfe d2d||f/g/|adfd ad (b/a/g/).f/|(e/f/g/a/) (g/e/)(f/d/) c2 cf/g/|adfd ad (b/a/)(g/f/)|
(f/e/).d/.c/ (a/g/f/e/) {e}d2 df/g/|.a/(d/^c/d/) .f/(d/^c/d/) .a/(d/^c/d/) (b/a/g/f/)|(e/f/g/a/ g/f/e/d/) c2 c>e|f>ed^c d=c A<c|G<E c>E {E}D2D||

